Numix-GalliumOS/24/mimetypes/application-executable.svg

<?xml version="1.0" encoding="UTF-8" standalone="no"?>
<svg
   xmlns:dc="http://purl.org/dc/elements/1.1/"
   xmlns:cc="http://creativecommons.org/ns#"
   xmlns:rdf="http://www.w3.org/1999/02/22-rdf-syntax-ns#"
   xmlns:svg="http://www.w3.org/2000/svg"
   xmlns="http://www.w3.org/2000/svg"
   xmlns:sodipodi="http://sodipodi.sourceforge.net/DTD/sodipodi-0.dtd"
   xmlns:inkscape="http://www.inkscape.org/namespaces/inkscape"
   width="24"
   height="24"
   viewBox="0 0 24 24"
   id="svg2"
   version="1.1"
   inkscape:version="0.48.5 r10040"
   sodipodi:docname="application-executable.svg">
  <metadata
     id="metadata14">
    <rdf:RDF>
      <cc:Work
         rdf:about="">
        <dc:format>image/svg+xml</dc:format>
        <dc:type
           rdf:resource="http://purl.org/dc/dcmitype/StillImage" />
      </cc:Work>
    </rdf:RDF>
  </metadata>
  <defs
     id="defs12" />
  <sodipodi:namedview
     pagecolor="#ffffff"
     bordercolor="#666666"
     borderopacity="1"
     objecttolerance="10"
     gridtolerance="10"
     guidetolerance="10"
     inkscape:pageopacity="0"
     inkscape:pageshadow="2"
     inkscape:window-width="1280"
     inkscape:window-height="970"
     id="namedview10"
     showgrid="true"
     inkscape:zoom="15.170655"
     inkscape:cx="22.598621"
     inkscape:cy="7.0931783"
     inkscape:window-x="0"
     inkscape:window-y="0"
     inkscape:window-maximized="1"
     inkscape:current-layer="svg2">
    <inkscape:grid
       type="xygrid"
       id="grid2991"
       empspacing="5"
       visible="true"
       enabled="true"
       snapvisiblegridlinesonly="true" />
  </sodipodi:namedview>
  <path
     style="fill:#eeeeee"
     d="M 4.9128785,4 C 4.4583331,4 4,4.4583331 4,4.9128785 L 4,19.109848 C 4,19.541667 4.4583331,20 4.8901518,20 L 19.109848,20 C 19.541667,20 20,19.541667 20,19.109848 L 20,4.8901518 C 20,4.4583331 19.541667,4 19.109848,4 z"
     id="path4"
     inkscape:connector-curvature="0" />
  <path
     style="fill:#888888"
     d="m 11.691406,6.550781 c -0.917968,0.292969 -0.113281,1.660157 -1.429687,2.328125 -1.5,0.765625 -2.246094,-1.164062 -3.148438,0.214844 -0.902343,1.378906 1.242188,1.164062 1.183594,2.785156 -0.0625,1.625 -2.1875,1.28125 -1.390625,2.710938 0.800781,1.433594 1.683594,-0.445313 3.125,0.410156 1.445312,0.859375 0.06641,2.445312 1.765625,2.5 1.699219,0.05078 0.4375,-1.613281 1.941406,-2.378906 1.5,-0.765625 2.246094,1.164062 3.148438,-0.214844 0.902343,-1.378906 -1.242188,-1.164062 -1.183594,-2.785156 0.0625,-1.625 2.1875,-1.28125 1.390625,-2.710938 C 16.292969,7.976562 15.410156,9.855469 13.96875,9 12.523438,8.140625 13.902344,6.554688 12.203125,6.5 11.992188,6.496094 11.820312,6.507812 11.691406,6.550781 z m 0.01563,4.128907 c 0.757813,-0.152344 1.503907,0.3125 1.664063,1.039062 0.164062,0.730469 -0.320313,1.445312 -1.078125,1.601562 -0.757813,0.152344 -1.503907,-0.3125 -1.664063,-1.039062 -0.164062,-0.730469 0.320313,-1.445312 1.078125,-1.601562 z"
     id="path6"
     inkscape:connector-curvature="0" />
  <path
     style="fill:#aaaaaa"
     d="M 5.1098482,4 C 4.8143942,4 4.5492422,4.1439399 4.3484848,4.3484848 4.1439399,4.5492422 4,4.8143942 4,5.1098482 L 4,18.916666 c 0,0.28788 0.1363636,0.553031 0.3333333,0.750001 C 4.530303,19.863636 4.7954541,20 5.0833338,20 l 13.8333322,0 c 0.28788,0 0.553031,-0.136364 0.750001,-0.333333 C 19.863636,19.469697 20,19.204546 20,18.916666 L 20,5.0833338 C 20,4.7954541 19.863636,4.530303 19.666667,4.3333333 19.469697,4.1363636 19.204546,4 18.916666,4 z M 5,5 19,5 19,19 5,19 z"
     id="path8"
     inkscape:connector-curvature="0"
     sodipodi:nodetypes="scsssssssssssccccc" />
</svg>

<svg xmlns="http://www.w3.org/2000/svg" viewBox="0 0 24 24">
 <path d="m 4.913 4 c -0.455 0 -0.913 0.458 -0.913 0.913 l 0 14.197 c 0 0.432 0.458 0.89 0.89 0.89 l 14.22 0 c 0.432 0 0.89 -0.458 0.89 -0.89 l 0 -14.22 c 0 -0.432 -0.458 -0.89 -0.89 -0.89 z" style="fill:#eee"/>
 <path d="m 11.691 6.551 c -0.918 0.293 -0.113 1.66 -1.43 2.328 -1.5 0.766 -2.246 -1.164 -3.148 0.215 -0.902 1.379 1.242 1.164 1.184 2.785 -0.063 1.625 -2.188 1.281 -1.391 2.711 0.801 1.434 1.684 -0.445 3.125 0.41 1.445 0.859 0.066 2.445 1.766 2.5 1.699 0.051 0.438 -1.613 1.941 -2.379 1.5 -0.766 2.246 1.164 3.148 -0.215 0.902 -1.379 -1.242 -1.164 -1.184 -2.785 0.063 -1.625 2.188 -1.281 1.391 -2.711 c -0.801 -1.434 -1.684 0.445 -3.125 -0.41 -1.445 -0.859 -0.066 -2.445 -1.766 -2.5 -0.211 -0.004 -0.383 0.008 -0.512 0.051 z m 0.016 4.129 c 0.758 -0.152 1.504 0.313 1.664 1.039 0.164 0.73 -0.32 1.445 -1.078 1.602 -0.758 0.152 -1.504 -0.313 -1.664 -1.039 -0.164 -0.73 0.32 -1.445 1.078 -1.602 z" style="fill:#888"/>
 <path d="m 5.11 4 c -0.295 0 -0.561 0.144 -0.761 0.348 -0.205 0.201 -0.348 0.466 -0.348 0.761 l 0 13.807 c 0 0.288 0.136 0.553 0.333 0.75 c 0.197 0.197 0.462 0.333 0.75 0.333 l 13.833 0 c 0.288 0 0.553 -0.136 0.75 -0.333 c 0.197 -0.197 0.333 -0.462 0.333 -0.75 l 0 -13.833 c 0 -0.288 -0.136 -0.553 -0.333 -0.75 -0.197 -0.197 -0.462 -0.333 -0.75 -0.333 z m -0.11 1 14 0 0 14 -14 0 z" style="fill:#aaa"/>
</svg>
